X: 274
T:Obsecro te, domina
N: Derived from Jos2408-Obsecro_te_domina.krn
C: Josquin des Prez
%%abc-version 2.0
%%abcx-abcm2ps-target-version 5.9.1 (29 Sep 2008)
%%abc-creator hum2abc beta
%%abcx-conversion-date 2019/02/12 16:15:52
%%abc-edited-by Jesse Rodin
%%abc-edited-by Will Watson 18/08/2011
%%abcx-initial-encoding-date 2011/08/18/
%%humdrum-veritas 2036531081
%%humdrum-veritas-data 1663707148
%%linebreak <none>
%%barnumbers 0
L: 1/4
M: 2/1
Q: 1/2=120
V: 1 clef=treble
V: 2 clef=treble-8
V: 3 clef=treble-8
V: 4 clef=treble-8
V: 5 clef=bass
K: C
[V:1] z8 | 
[V:2] A4c4- | 
[V:3] A8- | 
[V:4] z8 | 
[V:5] z8 | 
[V:1] z8 | 
[V:2] c2c2F4 | 
[V:3] A8 | 
[V:4] z4A4 | 
[V:5] z8 | 
[V:1] z8 | 
[V:2] z8 | 
[V:3] A8- | 
[V:4] c6c2 | 
[V:5] z8 | 
[V:1] z8 | 
[V:2] A4c4- | 
[V:3] A8 | 
[V:4] F4A4- | 
[V:5] D,4C,2A,,2 | 
[V:1] z4A4 | 
[V:2] c2c2F4 | 
[V:3] A8- | 
[V:4] A2A2D2d2 | 
[V:5] A,,4D,4 | 
[V:1] c6c2 | 
[V:2] z8 | 
[V:3] A8- | 
[V:4] e8 | 
[V:5] C,2A,,2A,,4 | 
[V:1] F4A4- | 
[V:2] z2d2e4 | 
[V:3] A8- | 
[V:4] d6^c2 | 
[V:5] D,4A,,4 | 
[V:1] A2A2D2d2- | 
[V:2] f8 | 
[V:3] A8- | 
[V:4] d8 | 
[V:5] D,6D,2 | 
[V:1] d2^cBc4 | 
[V:2] e8 | 
[V:3] A8- | 
[V:4] z4e4 | 
[V:5] A,,8 | 
[V:1] d2f4ed | 
[V:2] d2D2F2G2 | 
[V:3] A8 | 
[V:4] f8 | 
[V:5] D,8 | 
[V:1] cAc4BA | 
[V:2] A3^GABcd | 
[V:3] c8- | 
[V:4] e8 | 
[V:5] A,,8 | 
[V:1] G2F2G4 | 
[V:2] e2f4e2 | 
[V:3] c8- | 
[V:4] z4c4 | 
[V:5] z4C,4 | 
[V:1] F4z4 | 
[V:2] f4z4 | 
[V:3] c8- | 
[V:4] A6A2 | 
[V:5] F,6F,2 | 
[V:1] z4G4 | 
[V:2] z4c4 | 
[V:3] c8 | 
[V:4] G2F2G4 | 
[V:5] E,2F,4E,2 | 
[V:1] A6A2 | 
[V:2] f6f2 | 
[V:3] c8- | 
[V:4] F8 | 
[V:5] F,8 | 
[V:1] G2F2G4 | 
[V:2] e2f4e2 | 
[V:3] c8- | 
[V:4] z4G4 | 
[V:5] z4C,4 | 
[V:1] F8 | 
[V:2] f8 | 
[V:3] c8- | 
[V:4] A6A2 | 
[V:5] F,6F,2 | 
[V:1] z8 | 
[V:2] g4g4 | 
[V:3] c8 | 
[V:4] G2F2G4 | 
[V:5] E,2D,2E,4 | 
[V:1] z2A2d4- | 
[V:2] f8 | 
[V:3] d8- | 
[V:4] A4z2A2 | 
[V:5] D,8- | 
[V:1] d2c2_B2A2 | 
[V:2] z8 | 
[V:3] d8- | 
[V:4] d6c2 | 
[V:5] D,8 | 
[V:1] G2A2_B2A2- | 
[V:2] z8 | 
[V:3] d8- | 
[V:4] _B2A2G2A2 | 
[V:5] z8 | 
[V:1] A2GFG4 | 
[V:2] z4z2d2- | 
[V:3] d8 | 
[V:4] _B8 | 
[V:5] z8 | 
[V:1] A8 | 
[V:2] d2^cB^c4 | 
[V:3] e8 | 
[V:4] A8 | 
[V:5] z8 | 
[V:1] z8 | 
[V:2] d4f4 | 
[V:3] d8- | 
[V:4] D8 | 
[V:5] z4z2D2- | 
[V:1] z8 | 
[V:2] f6g2 | 
[V:3] d8 | 
[V:4] z8 | 
[V:5] DC_B,A,B,4 | 
[V:1] z2A4A2- | 
[V:2] e8 | 
[V:3] ^c8 | 
[V:4] z2A4A2 | 
[V:5] A,4A,,4 | 
[V:1] A2GFG4 | 
[V:2] z8 | 
[V:3] d8 | 
[V:4] _B8 | 
[V:5] z4z2D2- | 
[V:1] A8 | 
[V:2] z8 | 
[V:3] e8 | 
[V:4] A8 | 
[V:5] D2^CB,C4 | 
[V:1] A4d4- | 
[V:2] z8 | 
[V:3] f8 | 
[V:4] D8 | 
[V:5] D6C2 | 
[V:1] d2c2_B2A2- | 
[V:2] z8 | 
[V:3] d8- | 
[V:4] z8 | 
[V:5] _B,2A,2G,2A,2 | 
[V:1] A2GFG4 | 
[V:2] z2d4d2 | 
[V:3] d8 | 
[V:4] z8 | 
[V:5] _B,8 | 
[V:1] A4A4 | 
[V:2] e4e4 | 
[V:3] ^c8 | 
[V:4] z2A4G2 | 
[V:5] A,8 | 
[V:1] A3GF2E2 | 
[V:2] z2a4g2 | 
[V:3] d8 | 
[V:4] F2E2D4 | 
[V:5] D,8 | 
[V:1] D8 | 
[V:2] f2e2d4 | 
[V:3] f8- | 
[V:4] d6c2 | 
[V:5] z8 | 
[V:1] d8 | 
[V:2] d3c_B2A2 | 
[V:3] f8 | 
[V:4] _B2A2d2c2 | 
[V:5] z2D,4D,2 | 
[V:1] z4e4 | 
[V:2] G8 | 
[V:3] g8 | 
[V:4] _BAd4^c2 | 
[V:5] G,2F,2E,4 | 
[V:1] f3ed2c2 | 
[V:2] A4z2A2 | 
[V:3] f8 | 
[V:4] d3c_B2A2 | 
[V:5] D,8 | 
[V:1] _B2A2G4 | 
[V:2] _BAd4^c2 | 
[V:3] z8 | 
[V:4] G2F2E4 | 
[V:5] z4G,4 | 
[V:1] F8 | 
[V:2] d8- | 
[V:3] f8- | 
[V:4] D8- | 
[V:5] A,8 | 
[V:1] z4f4 | 
[V:2] d4z2d2 | 
[V:3] f8- | 
[V:4] D8 | 
[V:5] z4z2D2 | 
[V:1] c4d4 | 
[V:2] a4d4 | 
[V:3] f8- | 
[V:4] z4z2d2 | 
[V:5] A,4_B,3A, | 
[V:1] c4z2f2 | 
[V:2] a4z2d2 | 
[V:3] f8 | 
[V:4] A4_B3A | 
[V:5] F,4z2D2 | 
[V:1] c4d4 | 
[V:2] a4d4 | 
[V:3] f8- | 
[V:4] F4z2d2 | 
[V:5] A,4_B,3A, | 
[V:1] c4z2f2 | 
[V:2] a4z2d2 | 
[V:3] f8 | 
[V:4] A4_B3A | 
[V:5] F,4z2D2 | 
[V:1] c4_B4 | 
[V:2] a4d4 | 
[V:3] f8- | 
[V:4] F4z2d2 | 
[V:5] A,4_B,3A, | 
[V:1] A4z4 | 
[V:2] a4z2f2- | 
[V:3] f8- | 
[V:4] A4_B3A | 
[V:5] F,4z2D2- | 
[V:1] z8 | 
[V:2] f2e2d2c2 | 
[V:3] f8 | 
[V:4] F2A2D2D2 | 
[V:5] D2C2_B,2A,2 | 
[V:1] z8 | 
[V:2] _BAd4^c2 | 
[V:3] g8 | 
[V:4] E2F2G4 | 
[V:5] G,2F,2E,4 | 
[V:1] A6G2 | 
[V:2] d8 | 
[V:3] f8- | 
[V:4] A4d4- | 
[V:5] D,8 | 
[V:1] F2E2D2C2 | 
[V:2] z8 | 
[V:3] f8 | 
[V:4] d2c2_B2A2 | 
[V:5] z8 | 
[V:1] B,A,D4^C2 | 
[V:2] z8 | 
[V:3] g8 | 
[V:4] G2F2E4 | 
[V:5] z8 | 
[V:1] D8 | 
[V:2] z4a4- | 
[V:3] f8- | 
[V:4] D8- | 
[V:5] A,6G,2 | 
[V:1] D6D2 | 
[V:2] a2g2f2a2- | 
[V:3] f8 | 
[V:4] D8 | 
[V:5] F,2E,2D,2F,2 | 
[V:1] E3FG3A | 
[V:2] a2d2e4 | 
[V:3] g8 | 
[V:4] z8 | 
[V:5] E,D,D4^C2 | 
[V:1] _B2A2A4 | 
[V:2] d8 | 
[V:3] f8- | 
[V:4] D6D2 | 
[V:5] D8 | 
[V:1] A4A2A2 | 
[V:2] d4d2d2 | 
[V:3] f8- | 
[V:4] F2D2F4- | 
[V:5] D,4D,2D,2 | 
[V:1] A4A4 | 
[V:2] d4d4 | 
[V:3] f8 | 
[V:4] F2EDF2G2 | 
[V:5] D,4D,4 | 
[V:1] c4z2A2 | 
[V:2] c4z2c2 | 
[V:3] e8- | 
[V:4] A8- | 
[V:5] A,,8- | 
[V:1] c3BA2^G2 | 
[V:2] e3dc2B2 | 
[V:3] e8 | 
[V:4] A4z4 | 
[V:5] A,,4z4 | 
[V:1] A2z2e4- | 
[V:2] A6A2 | 
[V:3] c4c4 | 
[V:4] z8 | 
[V:5] z8 | 
[V:1] e2dcd4 | 
[V:2] a8 | 
[V:3] f4f4 | 
[V:4] z8 | 
[V:5] z8 | 
[V:1] e8 | 
[V:2] g8 | 
[V:3] e8 | 
[V:4] B2c2B2e2- | 
[V:5] E,8 | 
[V:1] z8 | 
[V:2] z8 | 
[V:3] A8 | 
[V:4] e2dcd4 | 
[V:5] F,8 | 
[V:1] z4z2B2- | 
[V:2] z2e4e2 | 
[V:3] G8 | 
[V:4] e8 | 
[V:5] E,8 | 
[V:1] B2B2d3c/B/ | 
[V:2] g6d2 | 
[V:3] z8 | 
[V:4] z8 | 
[V:5] z8 | 
[V:1] A3Bc3B | 
[V:2] f4e3d | 
[V:3] z8 | 
[V:4] z8 | 
[V:5] z8 | 
[V:1] A2^G2A4- | 
[V:2] c2B2A4- | 
[V:3] z8 | 
[V:4] z8 | 
[V:5] z8 | 
[V:1] A8 | 
[V:2] A8 | 
[V:3] z8 | 
[V:4] z2e4e2 | 
[V:5] z4z2C2 | 
[V:1] z8 | 
[V:2] z8 | 
[V:3] z8 | 
[V:4] g3f/e/d3e | 
[V:5] G,3A,_B,4 | 
[V:1] z8 | 
[V:2] z8 | 
[V:3] z8 | 
[V:4] f3ed2^c2 | 
[V:5] A,3G,F,2E,2 | 
[V:1] z4z2A2 | 
[V:2] z2d2f4 | 
[V:3] z8 | 
[V:4] d8 | 
[V:5] D,8 | 
[V:1] c4B2d2 | 
[V:2] e4g3f | 
[V:3] z8 | 
[V:4] z8 | 
[V:5] z8 | 
[V:1] c3BA2^G2 | 
[V:2] e3dc2B2 | 
[V:3] z8 | 
[V:4] z8 | 
[V:5] z8 | 
[V:1] A8 | 
[V:2] A8 | 
[V:3] z8 | 
[V:4] z4z2e2 | 
[V:5] z2A,2C4 | 
[V:1] z8 | 
[V:2] z8 | 
[V:3] z8 | 
[V:4] g3f/e/d3e | 
[V:5] G,4_B,4 | 
[V:1] z8 | 
[V:2] z8 | 
[V:3] z8 | 
[V:4] f3ed2^c2 | 
[V:5] A,3G,F,2E,2 | 
[V:1] z8 | 
[V:2] z8 | 
[V:3] f4f4 | 
[V:4] d4z2A2 | 
[V:5] D,8 | 
[V:1] z8 | 
[V:2] z2d2f4- | 
[V:3] d4d4 | 
[V:4] _B6_B2- | 
[V:5] z8 | 
[V:1] z8 | 
[V:2] f2f2g4 | 
[V:3] d4d4 | 
[V:4] B2A2G4 | 
[V:5] z8 | 
[V:1] z2A2c4- | 
[V:2] a4a4 | 
[V:3] f8 | 
[V:4] F8- | 
[V:5] z2F,2A,4- | 
[V:1] c2c2d4 | 
[V:2] z2a2f2a2 | 
[V:3] f8 | 
[V:4] F8 | 
[V:5] A,2A,4F,2 | 
[V:1] e6e2 | 
[V:2] g3fede2- | 
[V:3] g8 | 
[V:4] B2G2B4 | 
[V:5] E,4E,2G,2- | 
[V:1] e4e4 | 
[V:2] edd4^c2 | 
[V:3] g8 | 
[V:4] G8 | 
[V:5] G,F,E,D,E,4 | 
[V:1] f3ed2c_B | 
[V:2] d4z2A2 | 
[V:3] f8 | 
[V:4] A2D4F2 | 
[V:5] D,2A,2_B,2A,G, | 
[V:1] A4z2A2 | 
[V:2] A3_B/c/d2c2 | 
[V:3] f8 | 
[V:4] F3G/A/_B2A2 | 
[V:5] F,4z2F,2 | 
[V:1] A3_B/c/d2c2 | 
[V:2] A4z2A2 | 
[V:3] f8- | 
[V:4] F4z2F2 | 
[V:5] F,3G,/A,/_B,2A,2 | 
[V:1] A4z2A2 | 
[V:2] A3_B/c/d2c2 | 
[V:3] f8 | 
[V:4] F3G/A/_B2A2 | 
[V:5] F,4z2F,2 | 
[V:1] A3_B/c/d2c2 | 
[V:2] A4z2A2 | 
[V:3] f8- | 
[V:4] F4z2F2 | 
[V:5] F,3G,/A,/_B,2A,2 | 
[V:1] A4z2A2 | 
[V:2] A3_B/c/d2c2 | 
[V:3] f8 | 
[V:4] F3G/A/_B2A2 | 
[V:5] F,4z2F,2 | 
[V:1] A3_B/c/d2c2 | 
[V:2] A4z2a2- | 
[V:3] f8 | 
[V:4] F4z2F2 | 
[V:5] F,3G,/A,/_B,2A,2 | 
[V:1] F4G4 | 
[V:2] agf4e2 | 
[V:3] z8 | 
[V:4] A2B2c3_B | 
[V:5] D,4C,4 | 
[V:1] F8 | 
[V:2] f4f4 | 
[V:3] c8- | 
[V:4] A8 | 
[V:5] F,8 | 
[V:1] z8 | 
[V:2] e4A4- | 
[V:3] c8 | 
[V:4] z4A4- | 
[V:5] A,6A,2 | 
[V:1] A6A2 | 
[V:2] A4a4- | 
[V:3] f8- | 
[V:4] A2A2D4- | 
[V:5] D,8 | 
[V:1] D8 | 
[V:2] a2a2d4 | 
[V:3] f8 | 
[V:4] D4z4 | 
[V:5] z8 | 
[V:1] d4e4 | 
[V:2] B4c4 | 
[V:3] g8 | 
[V:4] z4G4 | 
[V:5] G,4E,4 | 
[V:1] A4d2c2 | 
[V:2] d4a4 | 
[V:3] f8 | 
[V:4] A4D4 | 
[V:5] D,4F,4 | 
[V:1] _B2A4G2 | 
[V:2] g2f2d4 | 
[V:3] d8 | 
[V:4] z8 | 
[V:5] G,2A,2_B,4 | 
[V:1] A4z4 | 
[V:2] e4a4- | 
[V:3] c8 | 
[V:4] z2A4A2 | 
[V:5] A,4A,,4 | 
[V:1] z8 | 
[V:2] a2gfg4 | 
[V:3] d8 | 
[V:4] _B4_B4 | 
[V:5] z8 | 
[V:1] z2A2A4 | 
[V:2] a8 | 
[V:3] e8 | 
[V:4] A3_B^c4 | 
[V:5] z2A,4A,2 | 
[V:1] A4d2c2 | 
[V:2] a6a2 | 
[V:3] f8 | 
[V:4] d2D2F4 | 
[V:5] D,8 | 
[V:1] _B2A4G2 | 
[V:2] g2f4e2 | 
[V:3] d4d4 | 
[V:4] G2A2_B4 | 
[V:5] D4D4 | 
[V:1] A4d2c2 | 
[V:2] f4z2a2 | 
[V:3] f8 | 
[V:4] F3ED4 | 
[V:5] C4F,4 | 
[V:1] _B2A4G2 | 
[V:2] g2f4e2 | 
[V:3] d8 | 
[V:4] z8 | 
[V:5] G,2A,2_B,4 | 
[V:1] A4A4 | 
[V:2] c8 | 
[V:3] f8- | 
[V:4] z8 | 
[V:5] F,6F,2 | 
[V:1] d6c2 | 
[V:2] d8 | 
[V:3] f8 | 
[V:4] A4d4- | 
[V:5] D,8 | 
[V:1] _B2A2G2F2 | 
[V:2] z8 | 
[V:3] d8- | 
[V:4] d2c2_B2A2 | 
[V:5] z8 | 
[V:1] _B2A4G2 | 
[V:2] z8 | 
[V:3] d8 | 
[V:4] G2F2_B4 | 
[V:5] z8 | 
[V:1] A8 | 
[V:2] z4e4 | 
[V:3] c8 | 
[V:4] A6A2 | 
[V:5] z8 | 
[V:1] z4D4 | 
[V:2] a6g2 | 
[V:3] f8 | 
[V:4] A4D4 | 
[V:5] D,4D4- | 
[V:1] A3GF2F2- | 
[V:2] f2e2d2c2 | 
[V:3] d8- | 
[V:4] z8 | 
[V:5] D2C2_B,2A,2 | 
[V:1] FGA4G2 | 
[V:2] _B2A2d4 | 
[V:3] d8 | 
[V:4] d2f4ed | 
[V:5] G,2F,2_B,4 | 
[V:1] A8 | 
[V:2] z4A4- | 
[V:3] e8 | 
[V:4] ^c2d4^c2 | 
[V:5] A,4A,,4 | 
[V:1] A6A2 | 
[V:2] A4a4 | 
[V:3] f8 | 
[V:4] d2d4c2- | 
[V:5] D,4D,4 | 
[V:1] e4ed^cB | 
[V:2] e2a4^g2 | 
[V:3] e8- | 
[V:4] c2BAB4 | 
[V:5] E,8 | 
[V:1] ^c8- | 
[V:2] a8 | 
[V:3] e8- | 
[V:4] A8- | 
[V:5] A,,8- | 
[V:1] c8 |]  
[V:2] e8 |]  
[V:3] e8 |]  
[V:4] A8 |]  
[V:5] A,,8 |]  



